Adwaita++/actions/symbolic/view-more-horizontal-symbolic.svg

<svg height="16" width="16" xmlns="http://www.w3.org/2000/svg">
  <path d="m16 6.384v3.231c0 .213-.224.385-.502.385h-2.996c-.278 0-.502-.172-.502-.385v-3.23c0-.214.224-.385.502-.385h2.996c.278 0 .502.171.502.384zm-6 0v3.231c0 .213-.224.385-.502.385h-2.996c-.278 0-.502-.172-.502-.385v-3.23c0-.215.224-.385.502-.385h2.996c.278 0 .502.171.502.384zm-6 0v3.231c0 .213-.224.385-.502.385h-2.996c-.278 0-.502-.172-.502-.385v-3.23c0-.215.224-.385.502-.385h2.996c.278 0 .502.17.502.384z" fill="#474747"/>
</svg>

<svg xmlns="http://www.w3.org/2000/svg" width="16" height="16">
    <g color="#000" fill="#474747">
        <path d="M16 6.384v3.231c0 .213-.224.385-.502.385h-2.996c-.278 0-.502-.172-.502-.385v-3.23c0-.214.224-.385.502-.385h2.996c.278 0 .502.171.502.384zM10 6.384v3.231c0 .213-.224.385-.502.385H6.502C6.224 10 6 9.828 6 9.615v-3.23C6 6.17 6.224 6 6.502 6h2.996c.278 0 .502.171.502.384zM4 6.384v3.231c0 .213-.224.385-.502.385H.502C.224 10 0 9.828 0 9.615v-3.23C0 6.17.224 6 .502 6h2.996C3.776 6 4 6.17 4 6.384z" style="marker:none" overflow="visible"/>
    </g>
</svg>
